X: 0
T: The Mountain Road
C: Michael Gorman
R: reel
M: 4/4
L: 1/8
K: Dmaj
"D"F2 AF BFAF|F2 AF "G"EFDE|"D"F2 AF BFAF|"G"G2 FG "A"EFDE|
"D"F2 AF BFAF|F2 AF EFD2|"G"FAA2 BAFB|"A"ABde fgfe|
"D"d2dB ADFA|d2 de "G"fgfe|"D"d2 dB ADFA|"G"GD FD EFGE|
"D"d2 dB ADFA|d2 de "G"fgfe|"D"d2 dB ADFA|"G"GEFD "A"EFFE| 